build/img/weather-app/wind-speed.svg

<svg width="36" height="36" viewBox="0 0 36 36" fill="none" xmlns="http://www.w3.org/2000/svg">
<path d="M20.4 21.6H1.2V24H20.4C22.38 24 24 25.62 24 27.6C24 29.58 22.38 31.2 20.4 31.2C18.42 31.2 16.8 29.58 16.8 27.6H14.4C14.4 30.912 17.088 33.6 20.4 33.6C23.712 33.6 26.4 30.912 26.4 27.6C26.4 24.288 23.712 21.6 20.4 21.6ZM19.2 9.00001C19.2 6.02401 16.776 3.60001 13.8 3.60001C10.824 3.60001 8.4 6.02401 8.4 9.00001H10.8C10.8 8.20436 11.1161 7.44129 11.6787 6.87869C12.2413 6.31608 13.0043 6.00001 13.8 6.00001C14.5956 6.00001 15.3587 6.31608 15.9213 6.87869C16.4839 7.44129 16.8 8.20436 16.8 9.00001C16.8 9.39397 16.7224 9.78408 16.5716 10.1481C16.4209 10.512 16.1999 10.8428 15.9213 11.1213C15.6427 11.3999 15.312 11.6209 14.948 11.7716C14.5841 11.9224 14.194 12 13.8 12H1.2V14.4H13.8C16.776 14.4 19.2 11.976 19.2 9.00001ZM28.056 4.80001C24.084 4.80001 20.856 8.02801 20.856 12H23.256C23.256 9.34801 25.404 7.20001 28.056 7.20001C30.708 7.20001 32.856 9.34801 32.856 12C32.856 14.652 30.708 16.8 28.056 16.8H1.2V19.2H28.056C32.028 19.2 35.256 15.972 35.256 12C35.256 8.02801 32.016 4.80001 28.056 4.80001Z" fill="white"/>
</svg>

<svg width="36" height="36" fill="none" xmlns="http://www.w3.org/2000/svg"><path d="M20.4 21.6H1.2V24h19.2c1.98 0 3.6 1.62 3.6 3.6s-1.62 3.6-3.6 3.6a3.61 3.61 0 01-3.6-3.6h-2.4c0 3.312 2.688 6 6 6s6-2.688 6-6-2.688-6-6-6zM19.2 9c0-2.976-2.424-5.4-5.4-5.4A5.408 5.408 0 008.4 9h2.4a3 3 0 113 3H1.2v2.4h12.6c2.976 0 5.4-2.424 5.4-5.4zm8.856-4.2a7.206 7.206 0 00-7.2 7.2h2.4c0-2.652 2.148-4.8 4.8-4.8 2.652 0 4.8 2.148 4.8 4.8 0 2.652-2.148 4.8-4.8 4.8H1.2v2.4h26.856c3.972 0 7.2-3.228 7.2-7.2s-3.24-7.2-7.2-7.2z" fill="#fff"/></svg>
